src/assets/flags/mr.svg

<?xml version="1.0" encoding="UTF-8"?>
<svg xmlns="http://www.w3.org/2000/svg" xmlns:xlink="http://www.w3.org/1999/xlink" width="25px" height="px" viewBox="0 0 25 19" version="1.1">
<g id="surface1">
<rect x="0" y="0" width="25" height="19" style="fill:rgb(80.392158%,16.470589%,24.313726%);fill-opacity:1;stroke:none;"/>
<path style=" stroke:none;fill-rule:nonzero;fill:rgb(0%,38.431373%,20%);fill-opacity:1;" d="M 0 2.851562 L 25 2.851562 L 25 16.148438 L 0 16.148438 Z M 0 2.851562 "/>
<path style=" stroke:none;fill-rule:nonzero;fill:rgb(100%,76.862746%,0%);fill-opacity:1;" d="M 18.359375 6.121094 C 18.359375 9.398438 15.734375 12.058594 12.5 12.058594 C 9.265625 12.058594 6.640625 9.398438 6.640625 6.121094 C 6.511719 6.625 6.445312 7.148438 6.445312 7.671875 C 6.445312 11.058594 9.15625 13.808594 12.5 13.808594 C 15.84375 13.808594 18.554688 11.058594 18.554688 7.671875 C 18.554688 7.148438 18.488281 6.625 18.359375 6.121094 "/>
<path style=" stroke:none;fill-rule:nonzero;fill:rgb(100%,76.862746%,0%);fill-opacity:1;" d="M 12.5 3.714844 L 11.972656 5.355469 L 10.273438 5.355469 L 11.652344 6.367188 L 11.125 8.007812 L 12.503906 6.996094 L 13.882812 8.007812 L 13.355469 6.367188 L 14.734375 5.355469 L 13.03125 5.355469 Z M 12.5 3.714844 "/>
</g>
</svg>

<svg xmlns="http://www.w3.org/2000/svg" width="25" height="px" viewBox="0 0 25 19"><path d="M0 0h25v19H0z" style="fill:#cd2a3e;fill-opacity:1;stroke:none"/><path d="M0 2.852h25v13.296H0Zm0 0" style="stroke:none;fill-rule:nonzero;fill:#006233;fill-opacity:1"/><path d="M18.36 6.121c0 3.277-2.626 5.938-5.86 5.938S6.64 9.399 6.64 6.12a6.3 6.3 0 0 0-.195 1.55c0 3.388 2.711 6.138 6.055 6.138s6.055-2.75 6.055-6.137c0-.524-.067-1.047-.196-1.55" style="stroke:none;fill-rule:nonzero;fill:#ffc400;fill-opacity:1"/><path d="m12.5 3.715-.527 1.64h-1.7l1.38 1.012-.528 1.64 1.379-1.01 1.379 1.01-.528-1.64 1.38-1.012H13.03Zm0 0" style="stroke:none;fill-rule:nonzero;fill:#ffc400;fill-opacity:1"/></svg>
